!!!!SEGMENT: pl-wumfc--n42966_karlowicz-mieczyslaw--na-aniol-panski.krn
!!!cenid: 18xx:4249
!!!COM: Karłowicz, Mieczysław
!!!COM-rismID: pe30108288
!!!CDT: 1876/12/11-1909/02/08
!!!CNT: Polish
!!!OTL: Na Anioł Pański
!!!PDT: 1910
!!!AGN:
!!!SMS-siglum: PL-Wumfc
!!!SMS-shelfmark: N42966
!!!SMS-shelfwork: W
!!!SMS-variant:
!!!SMS-altvar:
!!!NIFC-rismSourceID: 1001166586
!!!NIFC-rismChildID: 1001166586
!!!NIFC-islandoraID: pl-wumfc:5590
!!!URL-pdf-islandora: https://repozytorium.nifc.pl/islandora/object/pl-wumfc:5590/datastream/PDF/view
!!!URL-scan: https://polish.musicsources.pl/pl/lokalizacje/galeria/druki-muzyczne/12416/2 @EN{Scan on Polish Music Sources Website} @PL{Skany w portalu Dziedzictwo Muzyki Polskiej w otwartym dostępie}
!!!ONB-nifc:
!!!AIN: 2 piano
!!!key: F
**kern	**kern	**text	**dynam
*part2	*part1	*part1	*part1
*staff2	*staff1	*staff1	*
*I"Fortepian.	*I"Fortepian.	*	*
*I'pf	*I'pf	*	*
*ICklav	*ICklav	*	*
*Ipiano	*Ipiano	*	*
*clefF4	*clefG2	*	*
*k[b-]	*k[b-]	*	*
*F:	*F:	*	*
*M4/4	*M4/4	*	*
*met(c)	*met(c)	*	*
=1	=1	=1	=1
!	!LO:TX:a:B:t=Andante non troppo.	!	!
!	!	!	!LO:DY:b
1r	(<8c^>/L 8cc	.	mf
.	8f/J) 8a	.	.
.	(8cc^>\L 8ccc	.	.
.	8ff\J) 8aa	.	.
.	(8c^>/L 8cc	.	.
.	8e/J) 8g#X	.	.
.	(8cc^>\L 8ccc	.	.
.	8ee\J) 8gg#X	.	.
=2	=2	=2	=2
1r	(8c^>/L 8cc	.	.
.	8f/J) 8a	.	.
.	(8cc^>\L 8ccc	.	.
.	8ff\J) 8aa	.	.
.	(8c^>/L 8cc	.	.
.	8e/J) 8g#X	.	.
.	(8cc^>\L 8ccc	Na	.
.	8ee\J) 8gg#X	.	.
=3	=3	=3	=3
4FF:/ 4C: 4A:	(8c^>/L 8cc	Anioł	.
.	8f/J) 8a	.	.
4C/	(8cc^>\L 8ccc	.	.
.	8ff\J) 8aa	.	.
4FF:/ 4C: 4B-:	(8c^>/L 8cc	Pański	.
.	8e/J) 8g#X	.	.
4C/	(8cc^>\L 8ccc	.	.
.	8ee\J) 8gg#X	biją	.
!!LO:LB:g=original	!	!	!
=4	=4	=4	=4
4FF:/ 4C: 4A:	(8c^>/L 8cc	dzwony,	.
.	8f/J) 8a	.	.
4C/	(8cc^>\L 8ccc	.	.
.	8ff\J) 8aa	Niech	.
4FF:/ 4C: 4B-:	(8c^>/L 8cc	.	.
.	8e/J) 8g#X	.	.
4C/	(8cc^>\L 8ccc	będzie	.
.	8ee\J) 8gg#X	.	.
=5	=5	=5	=5
*	*^	*	*
4FF:/ 4C: 4A:	8c\L 8f 8a 8cc	2.ryy	Marja	.
.	8d\ 8f 8a 8dd	.	.	.
4C/	8f\ 8a 8cc 8ff	.	.	.
.	8a\J 8cc 8ff 8aa	.	pozdrowiona,	.
4FF:/ 4C: 4B-:	8cc\L 8ee 8gg#X 8ccc	.	.	.
.	8dd\J 8ee 8gg# 8ddd	.	.	.
4C/	8rc	4g#X/ 4gg#	.	.
.	8dd\ 8ee	.	Niech	.
=6	=6	=6	=6	=6
*^	*	*	*	*
4FF:/ 4C: 4A:	2ryy	8a\L 8cc 8ff 8aa	2ryy	.	.
.	.	8gn\ 8a 8cc 8ggn	.	będzie	.
4C/	.	8f\ 8a 8cc 8ff	.	.	.
.	.	8a\J 8cc 8ff 8aa	.	Chrystus	.
.	8qFF/	.	.	.	.
4r	2A-X\	4e/ 4ee	8r	.	.
.	.	.	8f\ 8bn	.	.
4Bn/	.	4d/ 4dd	8r	Pozdrowiony...	.
.	.	.	8f\ 8b	.	.
*	*	*v	*v	*	*
!!LO:LB:g=original	!	!	!	!
=7	=7	=7	=7	=7
2G/ 2B-X	4r	8c/L 8cc	Na	.
.	.	8e/ 8g	.	.
.	4C\	8c/	.	.
.	.	8e/J 8g 8cc	Anioł	.
2B-/	4A\	8dd/L	.	.
.	.	8d/ 8f	.	.
.	8G\L	8f/ 8b-	Pański	.
.	8F\J	8b-/J 8dd	.	.
=8	=8	=8	=8	=8
*	*	*^	*	*
2B-/	4E\	2cc/	8r	biją	.
.	.	.	4c\ 4g	.	.
.	4C\	.	.	.	.
.	.	.	8c\ 8e 8g	.	.
4E\ 4B-	2ryy	2cc/	8r	dzwony	.
.	.	.	4c\ 4e 4g#X	.	.
4CC/	.	.	.	.	.
.	.	.	8c\ 8e 8g#	.	.
*v	*v	*	*	*	*
*	*v	*v	*	*
=9	=9	=9	=9
!	!	!	!LO:HP:b:t=poco a poco dim.
4FF/ 4C 4A	(8cc^\L 8ccc	W niebiosach	>
.	8ff\J) 8aa	.	.
*	*8va	*	*
!	!LO:TUP:a:problem:klamra łukowa	!	!
!	!LO:TUP:b	!	!
4C/	12ccc^\L 12cccc	.	.
.	12fff\ 12aaa	.	.
.	12ccc\J 12cccc	.	.
*	*X8va	*	*
4FF/ 4C 4B-	(8cc^\L 8ccc	.	.
.	8ee\J) 8gg#X	.	.
*	*8va	*	*
!	!LO:TUP:b:problem:klamra łukowa	!	!
4C/	12ccc^\L 12cccc	kędyś	.
.	12eee\ 12ggg#X	.	.
.	12ccc\J 12cccc	.	.
*	*X8va	*	*
!!LO:LB:g=original	!	!	!
=10	=10	=10	=10
!LO:TUP:b	!LO:TUP:b	!	!
3FF:/ 3C: 3A:	(6cc^\ 6ccc	głos	.
.	6ff\) 6aa	.	.
*	*8va	*	*
6C/	(6ccc^\ 6cccc	ich	.
!LO:TUP:b	!LO:TUP:b	!	!
6C/	6fff\) 6aaa	.	.
*	*X8va	*	*
3FF:/ 3C: 3B-:	(6cc^\ 6ccc	kona...	.
.	6ee\) 6gg#X	.	.
=11	=11	=11	=11
*	*8va	*	*
!	!	!	!LO:DY:b
2e;\ 2g#X	(4ccc^\ 4cccc	.	pp
.	4eee;\) 4ggg#X	.	.
*	*X8va	*	*
2r;	2r;	.	.
=12||	=12||	=12||	=12||
*k[b-e-a-d-]	*k[b-e-a-d-]	*	*
*^	*^	*	*
1C	2FF\	(8A-/L	2A-\	W	.
.	.	8B-/	.	wieczornym	.
.	.	8c/	.	.	.
.	.	[8d-/J	.	.	.
.	2EEn\	8d-/L]	4G\	.	.
.	.	8Bn/	.	mroku,	.
.	.	8c/	4r	.	.
.	.	8G/J)	.	.	.
!!LO:PB:g=original	!	!	!	!	!
=13	=13	=13	=13	=13	=13
2C/	2FF\	(8A-/L	2A-\	we	.
.	.	8a-/	.	.	.
.	.	8g/	.	mgle	.
.	.	[8f/J	.	.	.
4D-/	2GG\	8f/L]	4B-\	szarej,	.
.	.	8en/	.	.	.
4En/	.	8e-X/	4r	Idzie	.
.	.	[8c/J)	.	.	.
=14	=14	=14	=14	=14	=14
!	!	!	!	!	!LO:HP:b
1F	2AA-\	8c/L]	2c\	przez	<
.	.	(8f/	.	.	.
.	.	8g/	.	łąki	.
.	.	8a-/J)	.	.	.
.	4BB-\	(8cc/	4d-\	i	[
!	!	!	!	!	!LO:HP:b
.	.	4b-/	.	moczary,	>
.	4BBn\	.	4dn\	.	.
.	.	[8a-/	.	.	.
*v	*v	*	*	*	*
=15	=15	=15	=15	=15
4C\ 4B-	8a-/]	4en\	Po	.
.	4g/	.	trzęsawiskach	.
4D-\ 4A-	.	4d-X\	.	.
.	8f/	.	.	.
4BB-\ 4G	8e-X/	2r	i	.
.	4d-/	.	rozłogach,	.
4C\ 4En	.	.	.	.
.	[8c/)	.	.	]
!!LO:LB:g=original	!	!	!	!
=16	=16	=16	=16	=16
*^	*	*	*	*
1C	2FF\	8c/L]	2A-\	Po	.
.	.	(8d-/	.	.	.
.	.	8c/	.	zapomnianych	.
.	.	8f/J	.	.	.
.	2GG\	8f/L	2B-\	.	.
.	.	8en/	.	.	.
.	.	8e-X/	.	dawno	.
.	.	[8c/J)	.	.	.
*v	*v	*	*	*	*
=17	=17	=17	=17	=17
2AA-/ 2C 2F	8c/L]	2r	drogach	.
.	(8f/	.	.	.
.	8g/	.	.	.
.	[8a-/J	.	Zaduma	.
4BB-\ 4F	8a-/L]	4d-\	.	.
.	8g/)	.	.	.
4C\ 4G-X	(8b-/	4e-\	polna	.
.	8an/J)	.	.	.
=18	=18	=18	=18	=18
*^	*	*	*	*
*	*^	*	*	*	*
2F/	4D-\	8c/	(8cc/L	2f\	osmętnica...	.
.	.	4B-/	8b-/	.	.	.
.	4C\	.	8ff/	.	Idzie	.
.	.	8A-/	[8a-X/J)	.	.	.
2F/	2BB-\	2ryy	(8a-/L]	2d-\	po	.
.	.	.	8g/	.	polach,	.
.	.	.	8f#X/	.	.	.
.	.	.	8g/J)	.	smutek	.
*v	*v	*v	*	*	*	*
*	*v	*v	*	*
!!LO:LB:g=original	!	!	!
=19	=19	=19	=19
4.d-\ 4.f	8cc\L 8ff 8ccc	sieje,	.
.	8b-\ 8bb-	.	.
.	8ff\ 8fff	Jako	.
8c\ 8d- 8f	[8a-\J [8aa-	.	.
[4B-\ [4d- [4en	8a-\L] 8aa-]	szron	.
.	8g\ 8gg	.	.
8B-\] 8d-] 8e]	8f#X\ 8ff#X	biały	.
8r	8g\J 8gg	.	.
=20	=20	=20	=20
!	!	!	!LO:DY:b
8GGG/ 8GG	8ff^\ 8bb- 8ddd- 8fff	od	mf
!	!	!	!LO:HP:b
8B-\L 8d-	8f/L 8b-	księżyca...	<
8c\ 8d-	8f/ 8cc	.	.
8B-\J 8d-	8f/J 8b-	Na	.
8An\L 8d-	8f/L 8an	wód	.
8B-\ 8d-	8f/ 8b-	.	.
8c\ 8d-	8f/ 8cc	topiele	.
8B-\J 8d-	8f/J 8b-	.	.
=21	=21	=21	=21
8BBB-/ 8BB-	8aa-X^\ 8ddd- 8fff-X 8aaa-X	i	.
8d-\L	8f-X/L 8a-X 8dd-	rozchwieje,	.
8e-\	8f-/ 8a- 8ee-	.	.
8d-\J	8f-/J 8a- 8dd-	.	.
8c\L	8f-/L 8a- 8cc	Na	.
8d-\	8f-/ 8a- 8dd-	.	.
8e-\	8f-/ 8a- 8ee-	omroczone	.
8d-\J	8f-/J 8a- 8dd-	.	.
!!LO:LB:g=original	!	!	!
=22	=22	=22	=22
!	!	!	!LO:DY:b
8CC\L 8C	8aa-^\L 8aaa-	śpiące	f
8B-\ 8en	8b-\ 8een	.	.
8e\ 8a-	8ee\ 8aa-	gaje	.
8B-\J 8e	8ee^\J 8eeen	.	.
8FFF\L 8FF	8gg^\L 8eee-X 8ggg	Cień	.
8An\ 8e-X	8an\ 8ee-X	.	.
8e-\ 8g	8ee-\ 8gg	zasępienia	.
8A\J 8e-	8a\J 8ee-	.	.
=23	=23	=23	=23
8BBB-\L 8BB-	8gg-X^\L 8ggg-X	.	.
8A-X\ 8dn	8a-X\ 8ddn	od	.
8d\ 8g-X	8dd\ 8gg-	niej	.
8A-\J 8d	8dd^\J 8dddn	wieje,	.
8EE-\L 8E-	8ff^\L 8ddd-X 8fff	.	.
8G\ 8d-X	8g\ 8dd-X	Włóczą	.
8d-\ 8f	8dd-\ 8ff	.	.
8G\J 8d-	8g\J 8dd-	się	.
=24	=24	=24	=24
!	!	!	!LO:HP:b:t=dim.
8AAA-X/ 8AA-X	8een\ 8aa-X 8ccc 8eeen	za	>
8C~\L 8En	8r	.	.
8E~\ 8A-	4ee\	nią	.
8A-~\J 8c	.	.	.
8c~\L 8en	4a-X/	żal,	.
8A-~\ 8c	.	.	.
8E~\ 8A-	4b-/	tęsknica...	.
8A-~\J 8c	.	.	.
!!LO:LB:g=original	!	!	!
=25	=25	=25	=25
8CC/ 8C	2cc\	Hen, na cmentarzu	.
8B-~\L 8c	.	.	.
8c~\ 8en	.	.	.
8B-~\J 8c	.	.	.
8DD-/ 8D-	[2a-/	ciemnym staje,	.
8A-~\L 8d-	.	.	.
8d-~\ 8f	.	.	.
8A-~\J 8d-	.	.	.
=26	=26	=26	=26
!	!	!	!LO:DY:b
8BBB-/ 8BB-	8a-/L]	.	p
!	!LO:TX:b:i:t=rit.	!	!
8G~\L 8d-	(>8g/	Na	.
8d-~\ 8f	8a-/	grób	.
8G~\J 8d-	8g/J)	.	.
8GGG/ 8GG	(4b-\	dziewczyny	.
8F~\L 8B-	.	.	.
8B-~\	4d-/)	młodej	.
8F~\J 8B-	.	.	.
=27	=27	=27	=27
*	*^	*	*
2CC/ 2C	2f/	8r	siada,	.
.	.	4A-\ 4B- 4d-	W świat	.
.	.	8A-\ 8B- 8d-	się	.
2C/	2en/	8r	od	.
.	.	4G\ 4B- 4d-	grobu	.
.	.	8G\ 8B- 8c	patrzy blada...	.
*	*v	*v	*	*
!!LO:PB:g=original	!	!	!
*kcancel	*kcancel	*kcancel	*
=28||	=28||	=28||	=28||
*k[b-]	*k[b-]	*	*
!	!	!	!LO:DY:b
4FF:/ 4C: 4A:	(8c^>/L 8cc	Na	p
.	8f/J) 8a	.	.
4C/	(8cc^>\L 8ccc	Anioł	.
.	8ff\J) 8aa	.	.
4FF:/ 4C: 4B-:	(8c^>/L 8cc	Pański	.
.	8e/J) 8g#X	.	.
4C/	(8cc^>\L 8ccc	biją	.
.	8ee\J) 8gg#X	.	.
=29	=29	=29	=29
4FF:/ 4C: 4A:	(8c^>/L 8cc	dzwony,	.
.	8f/J) 8a	.	.
4C/	(8cc^>\L 8ccc	.	.
.	8ff\J) 8aa	Niech	.
4FF:/ 4C: 4B-:	(8c^>/L 8cc	.	.
.	8e/J) 8g#X	.	.
4C/	(8cc^>\L 8ccc	będzie	.
.	8ee\J) 8gg#X	.	.
=30	=30	=30	=30
*	*^	*	*
4FF:/ 4C: 4A:	8c\L 8f 8a 8cc	2.ryy	Marja	.
.	8d\ 8f 8a 8dd	.	.	.
4C/	8f\ 8a 8cc 8ff	.	.	.
.	8a\J 8cc 8ff 8aa	.	.	.
4FF:/ 4C: 4B-:	8cc\L 8ee 8gg#X 8ccc	.	pozdrowiona,	.
.	8dd\J 8ee 8gg# 8ddd	.	.	.
4C/	8rc	4g#X/ 4gg#	.	.
.	8dd\ 8ee	.	Niech	.
!!LO:LB:g=original	!	!	!	!
=31	=31	=31	=31	=31
*^	*	*	*	*
4FF:/ 4C: 4A:	2ryy	8a\L 8cc 8ff 8aa	2ryy	będzie	.
.	.	8gn\ 8a 8cc 8ggn	.	.	.
4C/	.	8f\ 8a 8cc 8ff	.	.	.
.	.	8a\J 8cc 8ff 8aa	.	Chrstus	.
.	8qFF/	.	.	.	.
4r	2A-X\	4e/ 4ee	8r	.	.
.	.	.	8f\ 8bn	.	.
4Bn/	.	4d/ 4dd	8r	pozdrowiony...	.
.	.	.	8f\ 8b	.	.
*	*	*v	*v	*	*
=32	=32	=32	=32	=32
2G/ 2B-X	4r	8c/L 8cc	.	.
.	.	8e/ 8g	.	.
.	4C\	8c/	Na	.
.	.	8e/J 8g 8cc	.	.
2B-/	4A\	8dd/L	Anioł	.
.	.	8d/ 8f	.	.
.	8G\L	8f/ 8b-	.	.
.	8F\J	8b-/J 8dd	Pański	.
=33	=33	=33	=33	=33
*	*	*^	*	*
2B-/	4E\	2cc/	8r	biją	.
.	.	.	4c\ 4g	.	.
.	4C\	.	.	.	.
.	.	.	8c\ 8e 8g	.	.
4E\ 4B-	2ryy	2cc/	8r	dzwony,	.
.	.	.	4c\ 4e 4g#X	.	.
4CC/	.	.	.	.	.
.	.	.	8c\ 8e 8g#	.	.
*v	*v	*	*	*	*
*	*v	*v	*	*
!!LO:LB:g=original	!	!	!
=34	=34	=34	=34
!	!	!	!LO:HP:b:t=poco a poco dim.
4FF:/ 4C: 4A:	(8cc^\L 8ccc	W	>
.	8ff\J) 8aa	niebiosach	.
*	*8va	*	*
!	!LO:TUP:b:problem:klamra łukowa	!	!
4C/	12ccc^\L 12cccc	.	.
.	12fff\ 12aaa	.	.
.	12ccc\J 12cccc	.	.
*	*X8va	*	*
4FF:/ 4C: 4B-:	(8cc^\L 8ccc	.	.
.	8ee\J) 8gg#X	kędyś	.
*	*8va	*	*
!	!LO:TUP:b:problem:klamra łukowa	!	!
4C/	12ccc^\L 12cccc	.	.
.	12eee\ 12ggg#X	.	.
.	12ccc\J 12cccc	.	.
*	*X8va	*	*
=35	=35	=35	=35
!LO:TUP:b	!LO:TUP:b	!	!
3FF:/ 3C: 3A:	(6cc^\ 6ccc	głos	.
.	6ff\) 6aa	.	.
*	*8va	*	*
[6C/	(6ccc^\ 6cccc	ich	.
!LO:TUP:b	!LO:TUP:b	!	!
6C/]	6fff\) 6aaa	.	.
*	*X8va	*	*
3FF:/ 3C: 3B-:	(6cc^\ 6ccc	kona...	.
.	6ee\) 6gg#X	.	.
=36	=36	=36	=36
*	*8va	*	*
!	!	!	!LO:DY:b
2e;\ 2g#X	(4ccc^\ 4cccc	.	pp
.	4eee;\) 4ggg#X	.	.
*	*X8va	*	*
2r;	2r;	.	.
!!LO:LB:g=original	!	!	!
=37||	=37||	=37||	=37||
*k[b-e-a-d-]	*k[b-e-a-d-]	*	*
*^	*^	*	*
!	!	!LO:TX:b:i:t=Poco piu mosso.	!	!	!
1C	2FF\	(8A-/L	2A-\	Na	pp
.	.	8B-/	.	wodę	.
.	.	8c/	.	ciche	.
.	.	[8d-/J	.	.	.
.	2EEn\	8d-/L]	4G\	cienie	.
.	.	8Bn/	.	.	.
.	.	8c/	4r	schodzą,	.
.	.	8G/J)	.	.	.
=38	=38	=38	=38	=38	=38
2C/	2FF\	(8A-/L	2A-\	Tumany	.
.	.	8a-/	.	.	.
.	.	8g/	.	się	.
.	.	[8f/J	.	.	.
4D-/	2GG\	8f/L]	4B-\	po	.
.	.	8en/	.	.	.
4En/	.	8e-X/	4r	wydmach	.
.	.	[8c/J)	.	.	.
=39	=39	=39	=39	=39	=39
!	!	!	!	!	!LO:HP:b
1F	2AA-\	8c/L]	2c\	wodzą,	<
.	.	(8f/	.	.	.
.	.	8g/	.	A	.
.	.	8a-/J)	.	.	.
.	4BB-\	(8cc/	4d-\	rzeka	[
!	!	!	!	!	!LO:HP:b
.	.	4b-/	.	.	>
.	4BBn\	.	4dn\	.	.
.	.	[8a-/	.	szemrze,	.
*v	*v	*	*	*	*
!!LO:LB:g=original	!	!	!	!
=40	=40	=40	=40	=40
4C\ 4B-	8a-/]	4en\	płynie	.
.	4g/	.	.	.
4D-\ 4A-	.	4d-X\	.	.
.	8f/	.	w mrokach,	.
4BB-\ 4G	8e-X/	2r	.	.
.	4d-/	.	.	.
4C\ 4En	.	.	.	.
.	[8c/)	.	Płynie	]
=41	=41	=41	=41	=41
*^	*	*	*	*
!	!	!LO:TX:b:i:t=	!	!	!LO:HP:b:t=poco a poco cresc.
1C	2FF\	8c/L]	2A-\	i	<
.	.	(8d-/	.	płynie	.
.	.	8c/	.	.	.
.	.	8f/J	.	.	.
.	2GG\	8f/L	2B-\	coraz	.
.	.	8en/	.	.	.
.	.	8e-X/	.	dalej...	.
.	.	[8c/J)	.	.	.
*v	*v	*	*	*	*
=42	=42	=42	=42	=42
2AA-/ 2C 2F	8c/L]	2r	A	.
.	(8f/	.	.	.
.	8g/	.	coś	.
.	8a-/J	.	.	.
4BB-\ 4F	8a-/L	4d-\	w niej	.
.	8g/)	.	.	.
4C\ 4G-X	(8b-/	4e-\	wzdycha,	.
.	8an/J)	.	.	.
!!LO:PB:g=original	!	!	!	!
=43	=43	=43	=43	=43
*^	*	*	*	*
*	*^	*	*	*	*
2F/	4D-\	8c/	(8cc/L	2f\	coś	.
.	.	4B-/	8b-/	.	.	.
.	4C\	.	8ff/	.	zawodzi,	.
.	.	8A-/	[8a-X/J)	.	.	.
2F/	2BB-\	2ryy	(8a-/L]	2d-\	Coś	.
.	.	.	8g/	.	.	.
.	.	.	8f#X/	.	się	.
.	.	.	8g/J)	.	w	.
*v	*v	*v	*	*	*	*
*	*v	*v	*	*
=44	=44	=44	=44
4.d-\ 4.f	8cc\L 8ff 8ccc	niej	.
.	8b-\ 8bb-	.	.
.	8ff\ 8fff	skarży,	.
8c\ 8d- 8f	[8a-\J [8aa-	.	.
[4B-\ [4d- [4en	8a-\L] 8aa-]	coś	.
.	8g\ 8gg	tak	.
8B-\] 8d-] 8e]	8f#X\ 8ff#X	.	.
8r	8g\J 8gg	żali...	.
=45	=45	=45	=45
!	!	!	!LO:DY:b
8GGG/ 8GG	8ff^\ 8bb- 8ddd- 8fff	Płynie	mf
!	!	!	!LO:HP:b
8B-\L 8d-	8f/L 8b-	.	<
8c\ 8d-	8f/ 8cc	i	.
8B-\J 8d-	8f/J 8b-	.	.
8An\L 8d-	8f/L 8an	płynie,	.
8B-\ 8d-	8f/ 8b-	.	.
8c\ 8d-	8f/ 8cc	aż	.
8B-\J 8d-	8f/J 8b-	.	.
!!LO:LB:g=original	!	!	!
=46	=46	=46	=46
8BBB-^/ 8BB-	8aa-X^\ 8ddd- 8fff-X 8aaa-X	gdzieś	.
8d-\L	8f-X/L 8a-X 8dd-	.	.
8e-\	8f-/ 8a- 8ee-	ginie,	.
8d-\J	8f-/J 8a- 8dd-	.	.
8c\L	8f-/L 8a- 8cc	.	.
8d-\	8f-/ 8a- 8dd-	Traci	.
8e-\	8f-/ 8a- 8ee-	.	.
8d-\J	8f-/J 8a- 8dd-	się	.
=47	=47	=47	=47
!	!	!	!LO:DY:b
8CC\L 8C	8aa-^\L 8aaa-	w	f
8B-\ 8en	8b-\ 8een	górach	.
8e\ 8a-	8ee\ 8aa-	.	.
8B-\J 8e	8ee^\J 8eeen	i	.
8FFF\L 8FF	8gg^\L 8eee-X 8ggg	.	.
8An\ 8e-X	8an\ 8ee-X	obłokach	.
8e-\ 8g	8ee-\ 8gg	.	.
8A\J 8e-	8a\J 8ee-	.	.
=48	=48	=48	=48
8BBB-\L 8BB-	8gg-X^\L 8ggg-X	I	.
8A-X\ 8dn	8a-X\ 8ddn	już	.
8d\ 8g-X	8dd\ 8gg-	nie	.
8A-\J 8d	8dd^\J 8dddn	.	.
8EE-\L 8E-	8ff^\L 8ddd-X 8fff	wraca	.
8G\ 8d-X	8g\ 8dd-X	.	.
8d-\ 8f	8dd-\ 8ff	nigdy	.
8G\J 8d-	8g\J 8dd-	.	.
!!LO:LB:g=original	!	!	!
=49	=49	=49	=49
8AAA-/ 8AA-	8een\ 8aa-X 8ccc 8eeen	fala,	.
8C~\L 8En	8r	.	.
8E~\ 8A-	(4ee\	Co	.
8A-~\J 8c	.	.	.
8c~\L 8e-	4a-X/	taka	.
8A-~\ 8c	.	.	.
8E~\ 8A-	4b-\)	smutna	.
8A-~\J 8c	.	.	.
=50	=50	=50	=50
8CC/ 8C	2cc\	stąd	.
8B-~\L 8c	.	.	.
8c~\ 8en	.	.	.
8B-~\J 8c	.	.	.
8DD-/ 8D-	[2a-/	odchodzi... Przepada	.
8A-~\L 8d-	.	.	.
8d-~\ 8f	.	.	.
8A-~\J 8d-	.	.	.
=51	=51	=51	=51
!	!	!	!LO:DY:b
8BBB-/ 8BB-	8a-/L]	.	p
!	!LO:TX:b:i:t=rit.	!	!
8G~\L 8d-	(>8g/	kędyś	.
8d-~\ 8f	8a-/	.	.
8G~\J 8d-	8g/J)	w mórz	.
8GGG/ 8GG	(4b-\	.	.
8F~\L 8B-	.	.	.
8B-~\	4d-/)	głębinie	.
8F~\J 8B-	.	.	.
!!LO:LB:g=original	!	!	!
=52	=52	=52	=52
*	*^	*	*
2CC/ 2C	2f/	8r	I już	.
.	.	4A-\ 4B- 4d-	nie	.
.	.	8A-\ 8B- 8d-	wraca	.
2C/	2en/	8r	nigdy	.
.	.	4G\ 4B- 4d-	z	.
.	.	8G\ 8B- 8c	dala...	.
*	*v	*v	*	*
*kcancel	*kcancel	*	*
=53||	=53||	=53||	=53||
*k[b-]	*k[b-]	*	*
!	!LO:TX:b:B:t=Tempo I. (And|t|e non troppo)	!	!
4FF:/ 4C: 4A:	(8c^>/L 8cc	Na	.
.	8f/J) 8a	.	.
4C/	(8cc^>\L 8ccc	Anioł	.
.	8ff\J) 8aa	.	.
4FF:/ 4C: 4B-:	(8c^>/L 8cc	Pański	.
.	8e/J) 8g#X	.	.
4C/	(8cc^>\L 8ccc	biją	.
.	8ee\J) 8gg#X	.	.
=54	=54	=54	=54
4FF:/ 4C: 4A:	(8c^>/L 8cc	dzwony,	.
.	8f/J) 8a	.	.
4C/	(8cc^>\L 8ccc	.	.
.	8ff\J) 8aa	.	.
4FF:/ 4C: 4B-:	(8c^>/L 8cc	Niech	.
.	8e/J) 8g#X	.	.
4C/	(8cc^>\L 8ccc	będzie	.
.	8ee\J) 8gg#X	.	.
!!LO:LB:g=original	!	!	!
=55	=55	=55	=55
*	*^	*	*
4FF:/ 4C: 4A:	8c\L 8f 8a 8cc	2.ryy	Marja	.
.	8d\ 8f 8a 8dd	.	.	.
4C/	8f\ 8a 8cc 8ff	.	.	.
.	8a\J 8cc 8ff 8aa	.	pozdrowiona,	.
4FF:/ 4C: 4B-:	8cc\L 8ee 8gg#X 8ccc	.	.	.
.	8dd\J 8ee 8gg# 8ddd	.	.	.
4C/	8rc	4g#X/ 4gg#	.	.
.	8dd\ 8ee	.	Niech	.
=56	=56	=56	=56	=56
*^	*	*	*	*
4FF:/ 4C: 4A:	2ryy	8a\L 8cc 8ff 8aa	2ryy	będzie	.
.	.	8gn\ 8a 8cc 8ggn	.	.	.
4C/	.	8f\ 8a 8cc 8ff	.	.	.
.	.	8a\J 8cc 8ff 8aa	.	Chrystus	.
.	8qFF/	.	.	.	.
4r	2A-X\	4e/ 4ee	8r	.	.
.	.	.	8f\ 8bn	.	.
4Bn/	.	4d/ 4dd	8r	pozdrowiony...	.
.	.	.	8f\ 8b	.	.
*	*	*v	*v	*	*
=57	=57	=57	=57	=57
2G/ 2B-X	4r	8c/L 8cc	Na	.
.	.	8e/ 8g	.	.
.	4C\	8c/	.	.
.	.	8e/J 8g 8cc	Anioł	.
2B-/	4A\	8dd/L	.	.
.	.	8d/ 8f	.	.
.	8G\L	8f/ 8b-	Pański	.
.	8F\J	8b-/J 8dd	.	.
!!LO:PB:g=original	!	!	!	!
=58	=58	=58	=58	=58
*	*	*^	*	*
2B-/	4E\	2cc/	8r	biją	.
.	.	.	4c\ 4g	.	.
.	4C\	.	.	.	.
.	.	.	8c\ 8e 8g	.	.
4E\ 4B-	2ryy	2cc/	8r	dzwony,	.
.	.	.	4c\ 4e 4g#X	.	.
4CC/	.	.	.	.	.
.	.	.	8c\ 8e 8g#	.	.
*v	*v	*	*	*	*
*	*v	*v	*	*
=59	=59	=59	=59
!	!	!	!LO:HP:b:t=poco a poco dim.
4FF:/ 4C: 4A:	(8cc^\L 8ccc	W	>
.	8ff\J) 8aa	.	.
*	*8va	*	*
!	!LO:TUP:b:problem:klamra łukowa	!	!
4C/	12ccc^\L 12cccc	niebiosach	.
.	12fff\ 12aaa	.	.
.	12ccc\J 12cccc	.	.
*	*X8va	*	*
4FF:/ 4C: 4B-:	(8cc^\L 8ccc	.	.
.	8ee\J) 8gg#X	.	.
*	*8va	*	*
!	!LO:TUP:b:problem:klamra łukowa	!	!
4C/	12ccc^\L 12cccc	kędyś	.
.	12eee\ 12ggg#X	.	.
.	12ccc\J 12cccc	.	.
*	*X8va	*	*
=60	=60	=60	=60
!LO:TUP:b	!LO:TUP:b	!	!
3FF:/ 3C: 3A:	(6cc^\ 6ccc	głos	.
.	6ff\) 6aa	.	.
*	*8va	*	*
[6C/	(6ccc^\ 6cccc	.	.
!LO:TUP:b	!LO:TUP:b	!	!
6C/]	6fff\) 6aaa	ich	.
*	*X8va	*	*
3FF:/ 3C: 3B-:	(6cc^\ 6ccc	.	.
.	6ee\) 6gg#X	.	.
=61	=61	=61	=61
*	*8va	*	*
!	!	!	!LO:DY:b
2e;\ 2g#X	(4ccc^\ 4cccc	kona...	pp
.	4eee\) 4ggg#X	.	.
*	*X8va	*	*
2r;	2r;	.	.
!!LO:LB:g=original	!	!	!
=62||	=62||	=62||	=62||
*k[b-e-a-d-]	*k[b-e-a-d-]	*	*
*^	*^	*	*
!	!	!	!	!	!LO:DY:b
1C	2FF\	(8A-/L	2A-\	Idzie	pp
.	.	8B-/	.	.	.
.	.	8c/	.	.	.
.	.	[8d-/J	.	samotna	.
.	2EEn\	8d-/L]	4G\	.	.
.	.	8Bn/	.	dusza	.
.	.	8c/	4r	.	.
.	.	8G/J)	.	polem,	.
=63	=63	=63	=63	=63	=63
2C/	2FF\	(8A-/L	2A-\	Idzie	.
.	.	8a-/	.	.	.
.	.	8g/	.	ze	.
.	.	[8f/J	.	swojem	.
4D-/	2GG\	8f/L]	4B-\	.	.
.	.	8en/	.	złem	.
4En/	.	8e-X/	4r	i	.
.	.	[8c/J)	.	bólem,	.
=64	=64	=64	=64	=64	=64
!	!	!	!	!	!LO:HP:b
1F	2AA-\	8c/L]	2c\	Po	<
.	.	(8f/	.	zbożnym	.
.	.	8g/	.	.	.
.	.	8a-/J)	.	łanie	.
.	4BB-\	(8cc/	4d-\	i	[
!	!	!	!	!	!LO:HP:b
.	.	4b-/	.	po	>
.	4BBn\	.	4dn\	.	.
.	.	[8a-/	.	lesie,	.
*v	*v	*	*	*	*
!!LO:LB:g=original	!	!	!	!
=65	=65	=65	=65	=65
4C\ 4B-	8a-/]	4en\	Wszędy	.
.	4g/	.	zło	.
4D-\ 4A-	.	4d-X\	.	.
.	8f/	.	swoje,	.
4BB-\ 4G	8e-X/	2r	swój	]
.	4d-/	.	ból	.
4C\ 4En	.	.	.	.
.	8c/)	.	niesie,	.
=66	=66	=66	=66	=66
*^	*	*	*	*
!	!	!	!	!	!LO:HP:b:t=poco a poco cresc.
1C	2FF\	(8c/L	2A-\	I	<
.	.	8d-/	.	swoją	.
.	.	8c/	.	dolę,	.
.	.	8f/J	.	.	.
.	2GG\	8f/L	2B-\	klnie	.
.	.	8en/	.	.	.
.	.	8e-X/	.	tułaczą,	.
.	.	[8c/J)	.	.	.
*v	*v	*	*	*	*
=67	=67	=67	=67	=67
2AA-/ 2C 2F	8c/L]	2r	I	.
.	(8f/	.	swoje	.
.	8g/	.	.	.
.	8a-/J)	.	losy	.
4BB-\ 4F	(8a-/L	4d-\	.	.
.	8g/)	.	klnie	.
4C\ 4G-X	(8b-/	4e-\	.	.
.	8an/J)	.	straszliwe.	.
!!LO:LB:g=original	!	!	!	!
=68	=68	=68	=68	=68
*^	*	*	*	*
*	*^	*	*	*	*
2F/	4D-\	8c/	(8cc/L	2f\	Z	.
.	.	4B-/	8b-/	.	ogromną	.
.	4C\	.	8ff/	.	.	.
.	.	8A-/	[8a-X/J)	.	skargą	.
2F/	2BB-\	2ryy	(8a-/L]	2d-\	i	.
.	.	.	8g/	.	.	.
.	.	.	8f#X/	.	rozpaczą	.
.	.	.	8g/J)	.	.	.
*v	*v	*v	*	*	*	*
*	*v	*v	*	*
=69	=69	=69	=69
4.d-\ 4.f	8cc\L 8ff 8ccc	Przez	.
.	8b-\ 8bb-	.	.
.	8ff\ 8fff	zasępioną	.
8c\ 8d- 8f	[8a-\J [8aa-	.	.
2B-\ 2d- 2en	8a-\L] 8aa-]	.	.
.	8g\ 8gg	idzie	.
.	8f#X\ 8ff#X	.	.
.	8g\J 8gg	niwę...	.
=70	=70	=70	=70
!	!	!	!LO:DY:b
8GGG/ 8GG	8ff^\ 8bb- 8ddd- 8fff	Idzie,	mf
!	!	!	!LO:HP:b
8B-\L 8d-	8f/L 8b-	jak	<
8c\ 8d-	8f/ 8cc	.	.
8B-\J 8d-	8f/J 8b-	widmo	.
8An\L 8d-	8f/L 8an	.	.
8B-\ 8d-	8f/ 8b-	.	.
8c\ 8d-	8f/ 8cc	potępione,	.
8B-\J 8d-	8f/J 8b-	.	.
!!LO:LB:g=original	!	!	!
=71	=71	=71	=71
8BBB-/ 8BB-	8aa-\ 8ddd- 8fff-X 8aaa-	Gwiżdże	.
8d-\L	8f-X/L 8a-X 8dd-	.	.
8e-\	8f-/ 8a- 8ee-	koło	.
8d-\J	8f-/J 8a- 8dd-	.	.
8c\L	8f-/L 8a- 8cc	niej	.
8d-\	8f-/ 8a- 8dd-	.	.
8e-\	8f-/ 8a- 8ee-	wiatr	.
8d-\J	8f-/J 8a- 8dd-	.	.
*clefG2	*	*	*
=72	=72	=72	=72
*^	*	*	*
!LO:TX:t=P:problem:przednutka przed zmianą klucza; klucz po kresce taktowej, ale błąd wyświetlania VHV po wpisaniu klucza po kresce	!	!	!	!
.	(8qB-/ 8qb-	.	.	.
*	*	*8va	*	*
!	!	!	!	!LO:DY:b
!	!	!	!	!LO:HP:b:t=poco a poco dim.
8cc^/L	2d-\) 2f	8ccc^\L 8fff 8cccc	i	f >
8cc-X~/	.	8ccc-X~\ 8cccc-X	tańczy	.
8b-~/	.	8bb-~\ 8bbb-	.	.
8an~/J	.	8aan~\J 8aaan	W	.
8a-X^/L	2B-\ 2d- 2en	8aa-X^\L 8ddd- 8aaa-X	którą	.
8g~/	.	8gg~\ 8ggg	.	.
8f#X~/	.	8ff#X~\ 8fff#X	się	.
8g~/J	.	8gg~\J 8ggg	.	.
*v	*v	*	*	*
*clefF4	*X8va	*	*
=73	=73	=73	=73
*^	*	*	*
4B-/ 4d-	(8A-\L	(8ffn^\L 8bb- 8ddd- 8fffn	kolwiek	.
.	8G\)	8een\) 8eeen	.	.
4B-/ 4d-	(8A-\	(8ff^\ 8bb- 8ddd- 8fff	.	.
.	8G\J)	8ee\J) 8eee	zwróci	.
4G/ 4B-	(8F\L	(8dd-^\L 8gg 8bb- 8ddd-	.	.
.	8En\)	8cc\) 8ccc	.	.
4G/ 4B-	(8F\	(8dd-^\ 8gg 8bb- 8ddd-	strone,	.
.	8E\J)	8cc\J) 8ccc	.	.
*v	*v	*	*	*
!!LO:PB:g=original	!	!	!
=74	=74	=74	=74
(8qDD-/	.	.	.
2D-\) 2F 2B-	8b-^\L 8ff 8bb-	Wszędzie	.
.	8an~\ 8aan	.	.
.	8a-X~\ 8aa-X	.	.
.	8g~\J 8gg	gościniec	.
2BB-\ 2En 2d-X	8f#X^\L 8dd-X 8ff#X	.	.
.	8g~\ 8gg	.	.
.	8a-~\ 8aa-	.	.
.	8g~\J 8gg	jej	.
=75	=75	=75	=75
*^	*	*	*
2D-/	4AA-\	(8fn^\L 8b- 8dd- 8ffn	.	.
.	.	8en\) 8een	wygnańczy	.
.	4GG\	(8f^\ 8b- 8dd- 8ff	.	.
.	.	8e\J) 8ee	.	.
2BB-/	4FF\	(8d-^/L 8g 8dd-	.	.
.	.	8c/) 8cc	Nigdzie	.
.	4EEn\	(8d-^/ 8g 8dd-	.	.
.	.	8c/J) 8cc	tu	.
=76	=76	=76	=76	=76
.	(8qDD-/	.	.	.
*	*	*^	*	*
!	!	!	!	!	!LO:DY:b
8r	2D-\)	2B-/ 2f 2b-	2ryy	miejsca	p
4F/	.	.	.	.	.
8F/	.	.	.	.	.
8r	2D-\	(4f/	2B-\ 2f	niema	.
4F/	.	.	.	.	.
.	.	4g/)	.	dla niej,	.
8F/	.	.	.	.	.
!!LO:LB:g=original	!	!	!	!	!
=77	=77	=77	=77	=77	=77
!	!	!	!	!	!LO:HP:b
8r	4BB-\	(4c/ 4a-	2f\	Niema	<
4F/	.	.	.	.	.
.	4BB-\	4d-/) 4b-	.	spoczynku,	.
8F/	.	.	.	.	.
8r	4AA-\	(4c/ 4cc	2f\	ni	.
4F/	.	.	.	.	.
.	4GG\	4d-/) 4dd-	.	przystani...	.
8F/	.	.	.	.	[[
*v	*v	*	*	*	*
*	*v	*v	*	*
=78	=78	=78	=78
.	8qc/	.	.
!	!	!	!LO:DY:b
8CC/ 8C	(4cc\	Idzie	mf
(8A-\L 8c	.	.	.
8d-\	4f/	przez	.
8A-\J) 8c	.	.	.
8CC/ 8C	2a-/)	pola umęczona,	.
(8A-\L 8c	.	.	.
8B-\	.	.	.
8A-\J) 8c	.	.	.
=79	=79	=79	=79
*	*^	*	*
2.CC/ 2.C	2en/	8r	Łamiąc	.
.	.	(8G\L 8B-	.	.
.	.	8A-\	.	.
.	.	8G\J) 8B-	.	.
.	(4d-/	8r	nad głową	.
.	.	8F\ 8G 8B-	.	.
!LO:TX:b:i:t=ad libit.	!	!	!	!
4C/	4c/)	8r	swą ramiona...	.
.	.	8E-\ 8G 8B-	.	.
*	*v	*v	*	*
!!LO:LB:g=original	!	!	!
=80||	=80||	=80||	=80||
!	!	!	!LO:DY:b
4FF:/ 4C: 4A-:	(8c^>/L 8cc	Na	pp
.	8f/J) 8a-	.	.
4C/	(8cc^>\L 8ccc	Anioł	.
.	8ff\J) 8aa-	.	.
4FF:/ 4C: 4B-:	(8c^>/L 8cc	.	.
.	8en/J) 8a-	.	.
4C/	(8cc^>\L 8ccc	Pański	.
.	8een\J) 8aa-	.	.
=81	=81	=81	=81
4FF:/ 4C: 4A-:	(8c^>/L 8cc	.	.
.	8f/J) 8a-	biją	.
4C/	(8cc^>\L 8ccc	.	.
.	8ff\J) 8aa-	.	.
4FF:/ 4C: 4B-:	(8c^>/L 8cc	dzwony,	.
.	8en/J) 8a-	.	.
4C/	(8cc^>\L 8ccc	.	.
.	8een\J) 8aa-	.	.
*kcancel	*kcancel	*	*
=82||	=82||	=82||	=82||
*k[b-]	*k[b-]	*	*
*	*^	*	*
4FF:/ 4C: 4An:	8c\L 8f 8an 8cc	2.ryy	Niech	.
.	8d\ 8f 8a 8dd	.	.	.
4C/	8f\ 8a 8cc 8ff	.	będzie	.
.	8a\J 8cc 8ff 8aa	.	.	.
4FF:/ 4C: 4B-:	8cc\L 8ee 8gg#X 8ccc	.	Marja	.
.	8dd\J 8ee 8gg# 8ddd	.	.	.
4C/	8r	4g#X/ 4gg#	pozdrowiona,	.
.	8dd\ 8ee	.	.	.
!!LO:LB:g=original	!	!	!	!
=83	=83	=83	=83	=83
4FF/ 4C 4A	8a\L 8cc 8ff 8aa	2ryy	.	.
.	8gn\ 8a 8cc 8ggn	.	Niech	.
4C/	8f\ 8a 8cc 8ff	.	.	.
.	8a\J 8cc 8ff 8aa	.	.	.
4FF:/ 4C: 4B-:	4d/ 4dd	8r	będzie	.
.	.	8e\ 8g	.	.
4C/	4c/ 4cc	8r	.	.
.	.	8e\ 8g#X	.	.
*	*v	*v	*	*
=84	=84	=84	=84
4FF:/ 4C: 4A:	(8cc^\L 8ccc	Chrystus	.
!	!	!	!LO:HP:b:t=molto dim. et rallentando
.	8ff\J) 8aa	.	>
*	*8va	*	*
!	!LO:TUP:b:problem:klamra łukowa	!	!
4C/	12ccc^\L 12cccc	.	.
.	12fff\ 12aaa	.	.
.	12ccc\J 12cccc	.	.
*	*X8va	*	*
4FF:/ 4C: 4B-:	(8cc^\L 8ccc	.	.
.	8ee\J) 8gg#X	pozdrowiony...	.
*	*8va	*	*
!	!LO:TUP:b:problem:klamra łukowa	!	!
4CC/	12ccc^\L 12cccc	.	.
.	12eee\ 12ggg	.	.
.	12ccc\J 12cccc	.	.
*	*X8va	*	*
!!LO:LB:g=original	!	!	!
=85	=85	=85	=85
4FF:/ 4C: 4A:	(8cc^\L 8ccc	.	.
.	8ff\J) 8aa	.	.
*	*8va	*	*
4C/	(8ccc^\L 8cccc	.	.
.	8fff\J) 8aaa	.	.
*	*X8va	*	*
4FF:/ 4C: 4B-:	(8cc^\L 8ccc	.	.
.	8ee\J) 8gg#X	.	.
*	*8va	*	*
4C/	(8ccc^\L 8cccc	.	.
.	8eee\J) 8ggg#y	.	.
*	*X8va	*	*
=86	=86	=86	=86
!	!	!	!LO:DY:b
*ped	*	*	*
(8FFF/L 8FF	1aa 1ccc 1fff 1aaa	.	ppp
8C/	.	.	.
8F/	.	.	.
8A/J	.	.	.
8c\L	.	.	.
*clefG2	*	*	*
8f\	.	.	.
8a\	.	.	.
8cc\J)	.	.	.
=87	=87	=87	=87
1f;:: 1a:: 1cc:: 1ff::	1aa;:: 1ccc:: 1fff:: 1aaa::	.	.
*Xped	*	*	*
==	==	==	==
*-	*-	*-	*-
!!!system-decoration: {(s1,s2)}
!!!RDF**kern: > = above
!!!RDF**kern: < = below
!!!ENC: Filip Voros
!!!END: 2022-11-23
!!!ENC: Jan Barakat
!!!END: 2022-12-08
!!!YEC: Copyright 2022 Narodowy Instytut Fryderyka Chopina (https://polishscores.org)
!!!YEM: License CC-BY-4.0 (https://creativecommons.org/licenses/by/4.0)
